icons/1_Primary/Wallabag.svg

<svg width="1024" height="1024" viewBox="0 0 1024 1024" fill="none" xmlns="http://www.w3.org/2000/svg">
<g clip-path="url(#clip0_2_3876)">
<path d="M512 1024C794.77 1024 1024 794.77 1024 512C1024 229.23 794.77 0 512 0C229.23 0 0 229.23 0 512C0 794.77 229.23 1024 512 1024Z" fill="#56595B"/>
<path d="M477.54 353.86C475.16 352.66 472.54 351.24 469.54 349.55C438.1 331.75 442.24 297.55 442.72 290.87C443.78 276.42 439.02 266.48 436.72 256.65C434.3 246.37 442.24 252.45 442.24 252.45C485.96 263.45 505.41 304.45 512.64 325.17C513.35 326.97 516.75 334.53 522.94 333.62H523C525.1 333.42 527.21 333.31 529.33 333.31C531.695 333.312 534.059 333.442 536.41 333.7C536.41 333.7 541.25 333.7 543.68 327.85C543.92 327.11 544.62 324.99 544.68 324.75C549.9 309.44 561.4 281.75 580.06 267.19C591.62 258.19 611.11 253.67 613.35 251.85C617.51 248.47 622.02 251.85 617.98 268.58C613.77 286.02 612.78 286.32 611.36 305.71C610.1 322.81 604.11 342.77 580.53 349.59C579.25 349.97 578.04 350.3 576.86 350.59C594.64 363.59 610.72 382.94 624.24 405.17C619.93 407.9 585.24 427.94 529.3 404.86C474.93 382.42 441.22 400.32 434.97 404.17C447.34 384.17 461.72 366.54 477.54 353.86ZM641.43 717C602.9 693.13 589.94 684.74 590.75 675.61C590.79 674.353 590.92 673.099 591.14 671.86C591.805 668.045 593.359 664.44 595.677 661.337C597.994 658.234 601.01 655.721 604.48 654C604.764 653.858 605.035 653.691 605.29 653.5C635.29 636.08 657.23 608.04 664.97 573.02C657.18 592.36 599.46 607.39 529.35 607.39C459.24 607.39 401.54 592.39 393.75 573.02C395.453 580.732 397.898 588.26 401.05 595.5C403.65 610.16 407.16 644.68 390.59 674.89C376 701.56 303.88 737.84 196.88 717C196.88 717 192.59 714 191.29 716.47C189.37 720.11 197.22 723.07 205.29 725.2C279.78 744.93 392.22 736.9 427.53 707.81C443.64 694.54 449.85 676.68 451.44 657.44C453.03 638.2 451.87 652.44 458.17 656.19C459.97 657.27 466.48 661.51 467.53 666.31C468.44 673.13 468.53 681.51 464.97 687.37C459.97 695.76 459.88 696.96 466.51 701.71C470.58 704.61 487.21 716.83 510.34 730.71L510.49 730.81C515.39 733.76 522.18 740.97 522.18 740.97C532.6 753.02 555.27 777.28 565.13 772.71C569.79 770.57 564.94 760.84 564.94 760.84C564.94 760.84 572.69 770.91 576.85 767.47C580.01 764.86 575 754.84 575 754.84C575 754.84 581.77 760.71 585.79 758.53C590.71 755.87 585.06 740.47 546.34 716.93C507.62 693.39 497.1 689.77 496.18 679.25V677.82C496.48 675.5 497.8 670.59 503.43 671.12C521.786 674.09 540.515 673.88 558.8 670.5L559.44 670.37C560.55 670.23 562.72 670.3 562.73 673C562.456 676.508 561.323 679.894 559.43 682.86C553.76 691.34 555.62 692.51 561.54 697.96C575.027 709.968 589.524 720.792 604.87 730.31L604.99 730.41C609.88 733.35 618.34 741.41 618.34 741.41C627.85 751.05 645.34 767.23 654.85 766.25C661.29 765.58 656.04 754.5 656.04 754.5C656.04 754.5 664.18 762.35 668.17 760.04C672.64 757.46 666.32 749.25 666.32 749.25C666.32 749.25 671.56 752.02 675.25 751.1C678.94 750.18 680 740.87 641.43 717ZM598.43 447.29C594.235 447.132 590.145 448.617 587.03 451.43C585.65 452.614 584.537 454.078 583.767 455.724C582.996 457.371 582.585 459.163 582.56 460.98V523.83C582.56 532.26 581.07 538.48 578.12 542.31C575.17 546.14 570.71 547.82 564.2 547.82C557.69 547.82 552.99 546.04 550.31 542.36C547.51 538.52 546.09 532.3 546.09 523.84V460.74C546.128 458.697 545.624 456.679 544.628 454.894C543.632 453.109 542.179 451.621 540.42 450.58C535.42 447.4 530.36 446.25 524.26 448.28C522.434 448.884 520.683 449.693 519.04 450.69C517.381 451.69 515.928 452.996 514.76 454.54C513.543 456.102 512.875 458.021 512.86 460V523.83C512.86 532.28 511.44 538.51 508.64 542.35C505.95 546.03 501.41 547.82 494.75 547.82C488.09 547.82 483.49 546.03 480.75 542.34C478.01 538.65 476.42 532.28 476.42 523.84V461C476.394 459.182 475.981 457.389 475.208 455.743C474.436 454.096 473.322 452.633 471.94 451.45C469 448.7 465.08 447.31 460.3 447.31C455.52 447.31 451.3 448.69 448.22 451.4C445.14 454.11 443.44 457.4 443.44 460.99V522.86C443.393 530.21 444.148 537.544 445.69 544.73C447.054 551.213 449.781 557.332 453.69 562.68C457.67 567.914 462.938 572.027 468.98 574.62C475.27 577.42 483.14 578.84 492.36 578.84C501.98 578.84 510.03 577.06 516.3 573.54C521.423 570.656 525.88 566.724 529.38 562C532.786 566.742 537.185 570.683 542.27 573.55C548.46 577.07 556.64 578.85 566.59 578.85C575.82 578.85 583.65 577.42 589.87 574.62C595.847 571.993 601.055 567.883 605 562.68C608.902 557.328 611.628 551.211 613 544.73C614.537 537.543 615.292 530.21 615.25 522.86V461C615.25 457.43 613.69 454.22 610.61 451.43C607.53 448.64 603.49 447.3 598.39 447.3L598.43 447.29Z" fill="white"/>
</g>
<defs>
<clipPath id="clip0_2_3876">
<rect width="1024" height="1024" fill="white"/>
</clipPath>
</defs>
</svg>

<svg xmlns="http://www.w3.org/2000/svg" width="1024" height="1024" fill="none">
   <g clip-path="url(#a)">
      <path fill="#56595B" d="M512 1024c282.77 0 512-229.23 512-512S794.77 0 512 0 0 229.23 0 512s229.23 512 512 512Z"/>
      <path fill="#fff" d="M477.54 353.86c-2.38-1.2-5-2.62-8-4.31-31.44-17.8-27.3-52-26.82-58.68 1.06-14.45-3.7-24.39-6-34.22-2.42-10.28 5.52-4.2 5.52-4.2 43.72 11 63.17 52 70.4 72.72.71 1.8 4.11 9.36 10.3 8.45h.06c2.1-.2 4.21-.31 6.33-.31 2.365.002 4.729.132 7.08.39 0 0 4.84 0 7.27-5.85.24-.74.94-2.86 1-3.1 5.22-15.31 16.72-43 35.38-57.56 11.56-9 31.05-13.52 33.29-15.34 4.16-3.38 8.67 0 4.63 16.73-4.21 17.44-5.2 17.74-6.62 37.13-1.26 17.1-7.25 37.06-30.83 43.88-1.28.38-2.49.71-3.67 1 17.78 13 33.86 32.35 47.38 54.58-4.31 2.73-39 22.77-94.94-.31-54.37-22.44-88.08-4.54-94.33-.69 12.37-20 26.75-37.63 42.57-50.31ZM641.43 717c-38.53-23.87-51.49-32.26-50.68-41.39.04-1.257.17-2.511.39-3.75A24.658 24.658 0 0 1 604.48 654c.284-.142.555-.309.81-.5 30-17.42 51.94-45.46 59.68-80.48-7.79 19.34-65.51 34.37-135.62 34.37s-127.81-15-135.6-34.37a122.478 122.478 0 0 0 7.3 22.48c2.6 14.66 6.11 49.18-10.46 79.39C376 701.56 303.88 737.84 196.88 717c0 0-4.29-3-5.59-.53-1.92 3.64 5.93 6.6 14 8.73 74.49 19.73 186.93 11.7 222.24-17.39 16.11-13.27 22.32-31.13 23.91-50.37 1.59-19.24.43-5 6.73-1.25 1.8 1.08 8.31 5.32 9.36 10.12.91 6.82 1 15.2-2.56 21.06-5 8.39-5.09 9.59 1.54 14.34 4.07 2.9 20.7 15.12 43.83 29l.15.1c4.9 2.95 11.69 10.16 11.69 10.16 10.42 12.05 33.09 36.31 42.95 31.74 4.66-2.14-.19-11.87-.19-11.87s7.75 10.07 11.91 6.63c3.16-2.61-1.85-12.63-1.85-12.63s6.77 5.87 10.79 3.69c4.92-2.66-.73-18.06-39.45-41.6-38.72-23.54-49.24-27.16-50.16-37.68v-1.43c.3-2.32 1.62-7.23 7.25-6.7a162.137 162.137 0 0 0 55.37-.62l.64-.13c1.11-.14 3.28-.07 3.29 2.63a21.427 21.427 0 0 1-3.3 9.86c-5.67 8.48-3.81 9.65 2.11 15.1a314.243 314.243 0 0 0 43.33 32.35l.12.1c4.89 2.94 13.35 11 13.35 11 9.51 9.64 27 25.82 36.51 24.84 6.44-.67 1.19-11.75 1.19-11.75s8.14 7.85 12.13 5.54c4.47-2.58-1.85-10.79-1.85-10.79s5.24 2.77 8.93 1.85c3.69-.92 4.75-10.23-33.82-34.1Zm-43-269.71a16.104 16.104 0 0 0-11.4 4.14 12.814 12.814 0 0 0-4.47 9.55v62.85c0 8.43-1.49 14.65-4.44 18.48s-7.41 5.51-13.92 5.51-11.21-1.78-13.89-5.46c-2.8-3.84-4.22-10.06-4.22-18.52v-63.1a11.558 11.558 0 0 0-5.67-10.16c-5-3.18-10.06-4.33-16.16-2.3a25.499 25.499 0 0 0-5.22 2.41 15.212 15.212 0 0 0-4.28 3.85 8.995 8.995 0 0 0-1.9 5.46v63.83c0 8.45-1.42 14.68-4.22 18.52-2.69 3.68-7.23 5.47-13.89 5.47s-11.26-1.79-14-5.48c-2.74-3.69-4.33-10.06-4.33-18.5V461a12.804 12.804 0 0 0-4.48-9.55c-2.94-2.75-6.86-4.14-11.64-4.14s-9 1.38-12.08 4.09-4.78 6-4.78 9.59v61.87a101.16 101.16 0 0 0 2.25 21.87 46.72 46.72 0 0 0 8 17.95 38.069 38.069 0 0 0 15.29 11.94c6.29 2.8 14.16 4.22 23.38 4.22 9.62 0 17.67-1.78 23.94-5.3A41.796 41.796 0 0 0 529.38 562a40.145 40.145 0 0 0 12.89 11.55c6.19 3.52 14.37 5.3 24.32 5.3 9.23 0 17.06-1.43 23.28-4.23A38.356 38.356 0 0 0 605 562.68a46.986 46.986 0 0 0 8-17.95 101.797 101.797 0 0 0 2.25-21.87V461c0-3.57-1.56-6.78-4.64-9.57-3.08-2.79-7.12-4.13-12.22-4.13l.04-.01Z"/>
   </g>
   <defs>
      <clipPath id="a">
         <path fill="#fff" d="M0 0h1024v1024H0z"/>
      </clipPath>
   </defs>
</svg>
